X: 1
T: Banshee's Wail Over The Mangle Pit, The
M: 6/8
L: 1/8
R: jig
K: Edor
F|:G3 FGF|EDB, DEF|G3 FBA|FEE E2F|
G3 FGF|EDB, DEF|GAB ABA| FEE E3:|
dcB edB|AFD DFA|dcB edc|Bcd e3|
dcB edB|AFD DEF|1 G3 FBA|FEE E3:|2 GAB ABA|FEE E3||
